svg/fluentui-system-icons/ic_fluent_home_more_24_filled.svg

<svg width="24" height="24" viewBox="0 0 24 24" fill="none" xmlns="http://www.w3.org/2000/svg">
<path d="M13.4399 2.5317C12.6012 1.8246 11.3747 1.82546 10.537 2.53373L3.79734 8.23171C3.29168 8.65922 3 9.28776 3 9.94993V19.2498C3 20.2163 3.7835 20.9998 4.75 20.9998H19.25C20.2165 20.9998 21 20.2163 21 19.2498V9.95121C21 9.28794 20.7073 8.65846 20.2002 8.23095L13.4399 2.5317ZM9 11.7498C9 12.4401 8.44036 12.9998 7.75 12.9998C7.05964 12.9998 6.5 12.4401 6.5 11.7498C6.5 11.0594 7.05964 10.4998 7.75 10.4998C8.44036 10.4998 9 11.0594 9 11.7498ZM13.25 11.7498C13.25 12.4401 12.6904 12.9998 12 12.9998C11.3096 12.9998 10.75 12.4401 10.75 11.7498C10.75 11.0594 11.3096 10.4998 12 10.4998C12.6904 10.4998 13.25 11.0594 13.25 11.7498ZM17.5 11.7498C17.5 12.4401 16.9404 12.9998 16.25 12.9998C15.5596 12.9998 15 12.4401 15 11.7498C15 11.0594 15.5596 10.4998 16.25 10.4998C16.9404 10.4998 17.5 11.0594 17.5 11.7498ZM9 15.7498C9 16.4401 8.44036 16.9998 7.75 16.9998C7.05964 16.9998 6.5 16.4401 6.5 15.7498C6.5 15.0594 7.05964 14.4998 7.75 14.4998C8.44036 14.4998 9 15.0594 9 15.7498ZM12 16.9998C11.3096 16.9998 10.75 16.4401 10.75 15.7498C10.75 15.0594 11.3096 14.4998 12 14.4998C12.6904 14.4998 13.25 15.0594 13.25 15.7498C13.25 16.4401 12.6904 16.9998 12 16.9998ZM16.25 16.9998C15.5596 16.9998 15 16.4401 15 15.7498C15 15.0594 15.5596 14.4998 16.25 14.4998C16.9404 14.4998 17.5 15.0594 17.5 15.7498C17.5 16.4401 16.9404 16.9998 16.25 16.9998Z" fill="#212121"/>
</svg>

<svg xmlns="http://www.w3.org/2000/svg" width="24" height="24"><path d="M13.44 2.532a2.25 2.25 0 0 0-2.903.002l-6.74 5.698A2.25 2.25 0 0 0 3 9.95v9.3c0 .966.784 1.75 1.75 1.75h14.5A1.75 1.75 0 0 0 21 19.25v-9.3a2.25 2.25 0 0 0-.8-1.72l-6.76-5.7ZM9 11.75a1.25 1.25 0 1 1-2.5 0 1.25 1.25 0 0 1 2.5 0Zm4.25 0a1.25 1.25 0 1 1-2.5 0 1.25 1.25 0 0 1 2.5 0Zm4.25 0a1.25 1.25 0 1 1-2.5 0 1.25 1.25 0 0 1 2.5 0Zm-8.5 4a1.25 1.25 0 1 1-2.5 0 1.25 1.25 0 0 1 2.5 0ZM12 17a1.25 1.25 0 1 1 0-2.5 1.25 1.25 0 0 1 0 2.5Zm4.25 0a1.25 1.25 0 1 1 0-2.5 1.25 1.25 0 0 1 0 2.5Z"/></svg>
